public/icon.svg

<svg id="Layer_1" enable-background="new 0 0 512 512" height="512" viewBox="0 0 512 512" width="512" xmlns="http://www.w3.org/2000/svg"><path d="m479.451 112.98-53.74-53.74c-7.811-7.811-20.474-7.811-28.284 0s-7.811 20.474 0 28.284l12.728 12.728-26.102 26.102c-33.978-28.346-75.292-45.458-119.362-49.441v-36.913h18c11.046 0 20-8.954 20-20s-8.954-20-20-20h-76c-11.046 0-20 8.954-20 20s8.954 20 20 20h18v36.913c-109.724 9.916-198 102.055-198 217.087 0 120.482 97.501 218 218 218 120.482 0 218-97.501 218-218 0-51.511-17.756-100.286-50.354-139.362l26.102-26.102 12.728 12.728c7.81 7.81 20.473 7.811 28.284 0 7.81-7.81 7.81-20.473 0-28.284zm-234.76 359.02c-98.149 0-178-79.851-178-178s79.851-178 178-178 178 79.851 178 178-79.85 178-178 178zm103.923-178c0 11.046-8.954 20-20 20h-83.922c-11.046 0-20-8.954-20-20v-117.675c0-11.046 8.954-20 20-20s20 8.954 20 20v97.675h63.922c11.046 0 20 8.954 20 20z"/></svg>

<?xml version="1.0" encoding="UTF-8" standalone="no"?>
<!DOCTYPE svg PUBLIC "-//W3C//DTD SVG 1.1//EN" "http://www.w3.org/Graphics/SVG/1.1/DTD/svg11.dtd">
<svg width="100%" height="100%" viewBox="0 0 1080 1080" version="1.1" xmlns="http://www.w3.org/2000/svg" xmlns:xlink="http://www.w3.org/1999/xlink" xml:space="preserve" xmlns:serif="http://www.serif.com/" style="fill-rule:evenodd;clip-rule:evenodd;stroke-linejoin:round;stroke-miterlimit:2;">
    <g transform="matrix(1.103,0,0,1.08928,-66.3316,-41.3629)">
        <g transform="matrix(1.15173,0,0,1.15173,-96.372,-60.2217)">
            <circle cx="547.367" cy="568.522" r="310.799" style="fill:rgb(212,231,251);"/>
        </g>
        <g id="icon.svg" transform="matrix(1.65556,0,0,1.65556,546.434,525.844)">
            <g transform="matrix(1,0,0,1,-256,-256)">
                <path d="M479.451,112.98L425.711,59.24C417.9,51.429 405.237,51.429 397.427,59.24C389.617,67.051 389.616,79.714 397.427,87.524L410.155,100.252L384.053,126.354C350.075,98.008 308.761,80.896 264.691,76.913L264.691,40L282.691,40C293.737,40 302.691,31.046 302.691,20C302.691,8.954 293.737,0 282.691,0L206.691,0C195.645,0 186.691,8.954 186.691,20C186.691,31.046 195.645,40 206.691,40L224.691,40L224.691,76.913C114.967,86.829 26.691,178.968 26.691,294C26.691,414.482 124.192,512 244.691,512C365.173,512 462.691,414.499 462.691,294C462.691,242.489 444.935,193.714 412.337,154.638L438.439,128.536L451.167,141.264C458.977,149.074 471.64,149.075 479.451,141.264C487.261,133.454 487.261,120.791 479.451,112.98ZM244.691,472C146.542,472 66.691,392.149 66.691,294C66.691,195.851 146.542,116 244.691,116C342.84,116 422.691,195.851 422.691,294C422.691,392.149 342.841,472 244.691,472ZM348.614,294C348.614,305.046 339.66,314 328.614,314L244.692,314C233.646,314 224.692,305.046 224.692,294L224.692,176.325C224.692,165.279 233.646,156.325 244.692,156.325C255.738,156.325 264.692,165.279 264.692,176.325L264.692,274L328.614,274C339.66,274 348.614,282.954 348.614,294Z" style="fill-rule:nonzero;"/>
            </g>
        </g>
    </g>
</svg>
